X:1
T:the Staffordshire Hornpipe
M:2/2
L:1/8
S:Flamborough
N:This tune appeared in a message at groups.google.co.uk in April 2010, then disappeared.
N:No other copies of this tune were known, so I saved it in my collection.
K:D
(3ABc |\
d2b2 g2ed | cea2 f2d2 | d2b2 g2ed | cea2 Acec | d2b2 g2ed |
cea2 f2d2 | gbag fdec | d2f2 d4   | f2e2 d2c2 | Bc (3dcB A2 Bc |
dcde fefg | a2g2 e2a2 | f2e2 d2c2 | Bc (3dcB A2a2 | b2ag fdec | d2f2 d2 |]
